X: 529
T: Drunken Billy Goat
B: jims roots
M:C|
L:1/8
R: Reel
Q: 1/4=100
K:A
V:1 
%D:Victor V40298 (78 RPM), Eck Robertson (recorded 1929, released 1930)
%D:http://www.slippery-hill.com/recording/drunken-bill-goat
a2- |: "A"a2 g2 faeg | aecA (3cBA F2 | "E"[E2A2][C2E2] DA,CA, | B2 [E2c2][E2B2]eg |
"A"aecA Bcde | aecc {d}BA F2 | A,CEE A2c2 | [1 "E"edcB "A"A2 eg :| [2 "E"ecBB "A"A2 ||
|:(3EFG | "A"AB c2 "E"GGBG | "D"FEFG "A"AGFE | "D"DDFD "A"CCEC | "E"B,A,B,C DCB,C |
"A"A,CEF AAcA | "D"BABc dcdB | "A"ABce  fgaf | "E"edcB "A"A2: |]
% abcbook-tune_id 6298c245fadbe75aed7ba135


% abcbook-boost 0
% abcbook-tablature 
% abcbook-transpose 
% abcbook-lastupdated 1654178374051
% abcbook-soundfonts 
% abcbook-repeats 1


